image/shelter.svg

<svg viewBox="0 0 700 700" xmlns="http://www.w3.org/2000/svg"><path d="m616.37 700a83.49 83.49 0 0 0 83.63-83.52v-532.85a83.6 83.6 0 0 0 -83.63-83.63h-532.74a83.6 83.6 0 0 0 -83.63 83.63v532.85a83.49 83.49 0 0 0 83.63 83.52z"/><path d="m88.85 20.65a68.22 68.22 0 0 0 -68.11 68.12v522.54a68.17 68.17 0 0 0 68.12 68.07h522.31a68.17 68.17 0 0 0 68.12-68.07v-522.54a68.22 68.22 0 0 0 -68.12-68.12z" fill="#fff"/><path d="m350 63.9-261.53 168.3v403.9h129.28v-192.15h32.11a16.2 16.2 0 0 0 12.8-6.27l27.81-35.87 29 65.15-82.71 169.14h31.59a19.8 19.8 0 0 0 17.8-11.1l71.29-145.65 6.12 78.09a19.8 19.8 0 0 0 19.74 18.25h123.36l-14.84-29a19.8 19.8 0 0 0 -17.53-10.59h-72.68l-6.5-83a19.77 19.77 0 0 0 -2.28-7.81l-29.65-65h33.28l31.86 48.44a16.2 16.2 0 0 0 27.07-17.8l-36.66-55.74a16.2 16.2 0 0 0 -13.54-7.3h-106a16.2 16.2 0 0 0 -12.8 6.27l-44.5 57.39h-24.14v-173h264.5v290.14a28.29 28.29 0 0 1 17.14 14v.09l21.21 41.46h-38.35v51.86h129.28v-403.9z"/><circle cx="293.16" cy="309.26" r="33.36"/></svg>

﻿<svg xmlns="http://www.w3.org/2000/svg" viewBox="0 0 700 700"><defs><style>.cls-1{fill:#fff;}</style></defs><path id="path2-3" d="M616.37,700A83.49,83.49,0,0,0,700,616.48V83.63A83.6,83.6,0,0,0,616.37,0H83.63A83.6,83.6,0,0,0,0,83.63V616.48A83.49,83.49,0,0,0,83.63,700Z"/><path id="path4" class="cls-1" d="M88.85,20.65A68.22,68.22,0,0,0,20.74,88.77V611.31a68.17,68.17,0,0,0,68.12,68.07H611.17a68.17,68.17,0,0,0,68.12-68.07V88.77a68.22,68.22,0,0,0-68.12-68.12H88.85Z"/><path d="M350,63.9,88.47,232.2V636.1H217.75V443.95h32.11a16.2,16.2,0,0,0,12.8-6.27l27.81-35.87,29,65.15L236.76,636.1h31.59a19.8,19.8,0,0,0,17.8-11.1l71.29-145.65,6.12,78.09a19.8,19.8,0,0,0,19.74,18.25H506.66l-14.84-29a19.8,19.8,0,0,0-17.53-10.59H401.61l-6.5-83a19.77,19.77,0,0,0-2.28-7.81l-29.65-65h33.28l31.86,48.44a16.2,16.2,0,0,0,27.07-17.8l-36.66-55.74a16.2,16.2,0,0,0-13.54-7.3h-106a16.2,16.2,0,0,0-12.8,6.27l-44.5,57.39H217.75v-173h264.5V528.69a28.29,28.29,0,0,1,17.14,14l0,.09,21.21,41.46H482.25V636.1H611.53V232.2Z"/><circle cx="293.16" cy="309.26" r="33.36"/></svg>
